X: 26653
T: Midlothian Pipe Band, The
R: jig
M: 6/8
K: Dmajor
|:fe|d2A def|ABA A3|f2f fed|e2e ABc|
d2A def|BGB B2g|fga ABc|1 d3 d:|2 d3 d2||
|:e|f2f fed|efe efg|aag ffe|dBB B2g|
fga efg|fed B2g|fga ABc|1 d3 d2:|2 d3 d||

